X:1
T:Title
%%score { ( 1 3 ) | 2 }
L:1/8
Q:1/4=100
M:3/4
K:Ab
V:1 treble nm="Grand Piano"
V:3 treble 
V:2 bass 
V:1
 [A,CE]2 [CEA]2 [B,EG]2 | [A,EA]3 B c2 | c2 B2 A2 | [Ge]4 z2 | [Ed]2 [Ec]2 [FB]2 | %5
w: Hubert~P.~Main * *|||||
 [=Ec]3 [GB] [FA]2 | [=DA]2 [DG]2 [DA]2 | B4 z2 | G2 A2 B2 | [Ec]3 [DB] [CA]2 | c2 d2 e2 | %11
w: ||||||
 d3 c B2 | [G,E]2 [A,EA]2 [DG]2 | [CA]3 [DB] [Ec]2 | [FB]2 z2 z2 | [CA]4 z2 |] %16
w: |||||
V:2
 A,,2 A,,2 D,2 | C,3 [E,G,E] [A,E]2 | [A,E]2 [G,DE]2 [A,C]2 | [E,B,]4 z2 | %4
 [E,B,]2 [E,A,]2 [D,F,]2 | [C,G,]3 [=E,C] [F,C]2 | [B,,B,]2 [B,,F,]2 [B,,F,]2 | [E,G,E]4 z2 | %8
 [E,B,D]2 [E,A,C]2 [E,G,E]2 | [A,,A,]3 [A,,E,] [A,,E,]2 | [A,E]2 [A,B,E]2 [A,CE]2 | %11
 [E,B,E]3 [E,A,E] [E,G,E]2 | E,D, C,2 [B,,E,]2 | [A,,E,]3 [A,,E,] [A,,A,]2 | %14
 .[D,A,]2 [E,CE]2 [E,B,D]2 | [A,,A,]4 z2 |] %16
V:3
 x6 | x6 | x6 | x6 | x6 | x6 | x6 | x6 | x6 | x6 | x6 | x6 | x6 | x6 | z D A2 G2 | x6 |] %16

